X:1
T:Now Lift the Carol
T:Now Lift the Carol
T:Arthur Henry Brown
T:A. M. Morgan, 1866
T:Public Domain Courtesy of the Cyber Hymnal™
T:Public Domain Courtesy of the Cyber Hymnal™
C:Arthur Henry Brown
Z:Public Domain
Z:Courtesy of the Cyber Hymnal™
%%score ( 1 2 ) ( 3 4 )
L:1/8
Q:1/4=105
M:6/8
K:Eb
V:1 treble 
V:2 treble 
V:3 bass 
V:4 bass 
V:1
 [FB] | [EG]2 [EB] (cd)[Ge] | [FB]2 [DG] E2 [DF] | [EG]2 [EG] ([GB][FA])[EG] | [EG]3 [DF]2 [FB] | %5
w: 1.~Now|lift the car- * ol,|men and maids, Now|wake ex- ult- * ant|sing- ing; This|
w: 2.~He|was not born * in|such sweet days, As|we of yore * re-|mem- ber; ’Twas|
w: 3.~He|did not bring * a|roy- al train, A|host no man * might|num- ber, Nor|
w: 4.~There|were poor shep- * herds|in the field, Their|flocks at mid- * night|tend- ing; Then|
w: 5.~Not|in the man- * ger|lies He now; Far|o’er the sap- * phire|por- tal At|
w: 6.~The|birth- day of * our|God and king— Lo!|we are called * to|greet Him; The|
 [EG]2 E (AB)[Ec] | [EB]2 [DG] E2 E | (BA)[EG] [EG]2 [DF] | [DF]3 E z E | [EG]2 [EG] [FA]2 [FA] | %10
w: day the Well * of|Life first sprang, Who|shall * de- clare His|spring- ing? It|is the birth- day|
w: not the sun- * ny|sum- mer time, Oh!|’twas * the cold De-|cem- ber: As|shines the sun a-|
w: lay be- girt * by|dam- ask folds, Nor|lulled * by harp to|slum- ber. Oh,|He was wrapped in|
w: Heav’n came down * and|brought for news, A|rap- * ture ne- ver|end- ing; So|they went swift to|
w: God’s right hand * of|power He sits Who|was * this day made|mor- tal: All|in the high- est,|
w: ev- er- last- * ing|Bride- groom comes, Oh,|go * ye out to|meet Him. This|is the end of|
 ([EG][DF])[CE] [=B,D]2 [_B,G] | B2 [EB] [DB]2 [D=A] | (G2 =A) (Bc)[_Ad] | [Ge]2 [Gg] B2 [Ee] | %14
w: of * our Peace; This|day for man the|wear- * y, * The|ev- er- last- ing|
w: bove * the snows When|na- ture’s life is|ly- * ing * Fast|bound in win- ter’s|
w: swath- * ing bands Whose|might o’er- spans the|Heav- * en, * And|that mean trough where|
w: Beth- * le- hem, And|saw— and told the|sto- * ry * Of|Christ the Lord, a|
w: ho- * liest place, Where|there may dwell none|o- * ther, * There|our own Man- hood|
w: all * be- low, The|crown of love’s best|sto- * ry; * Christ|stands and knocks— oh,|
 [Ec]2 [FA] [DF]2 E | ([GB][FA])[EG] [EG]2 [DF] | [DF]3 E2 z ||"^Refrain" [DF]3 [EG]3 | %18
w: Son of God Was|born * of bless- èd|Ma- ry.||
w: ic- y chain, So|came * He to the|dy- ing.||
w: ox- en fed, For|His * first rest was|giv- en.||
w: lit- tle child, And|an- * gels singi- ng,|“Glo- ry.”||
w: sits en- throned, There|is * our el- der|bro- ther.||
w: hap- py souls, Re-|ceive * the King of|glo- ry.||
 ([FA][EG][DF]) [EG]2 [FB] | [Ee]2 [Ge] (ed)[Fc] | [Fd]3 B3 | c2 [Fc] [FB]2 [EB] | %22
w: ||||
w: ||||
w: ||||
w: ||||
w: ||||
w: ||||
 AG[DF] [EG]2 [EB] | (cd)[Ge] [Fe]2 [Fd] | [Ge]3- [Ge]2 |] %25
w: |||
w: |||
w: |||
w: |||
w: |||
w: |||
V:2
 x | x3 A2 x | x3 E2 x | x6 | x6 | x2 E E2 x | x3 E2 E | E2 x4 | x3 EE x | x6 | x6 | (DG) x4 | %12
 D3 D2 x | x3 B2 x | x5 E | x6 | x3 E2 x || x6 | x6 | x3 =A2 x | x3 (F2 G) | (AG) x4 | E2 x4 | %23
 A2 x4 | x5 |] %25
V:3
 [D,B,] | [E,B,]2 [G,B,] [F,A,]2 [E,B,] | [D,B,]2 [B,,B,] [C,G,]2 [B,,B,] | %3
w: ~|~ ~ ~ ~|~ ~ ~ ~|
 [E,B,]2 [E,B,] [A,,C]2 [=A,,C] | [B,,B,]3 [B,,B,]2 [D,B,] | [E,B,]2 [G,B,] C2 [A,C] | %6
w: ~ ~ ~ ~|~ ~ ~|~ ~ ~ ~|
 [G,E]2 [G,B,] C2 [B,_D] | [A,C]2 [=A,C] B,2 [B,,_A,] | [B,,A,]3 [E,G,] z [C,G,] | %9
w: ~ ~ ~ ~|~ ~ ~ ~|~ ~ ~|
 [C,C]2 [C,C] [F,C]2 [F,C] | [C,C]2 [E,G,] G,2 [E,G,] | [D,G,]2 [C,G,] [D,G,]2 [^F,C] | %12
w: ~ ~ ~ ~|~ ~ ~ ~|~ ~ ~ ~|
 [G,B,]3 G,2 [F,A,] | [E,B,]2 [E,B,] [G,,E]2 [G,,B,] | [A,,C]2 [A,,C] [B,,B,]2 [C,G,] | %15
w: ~ ~ ~|~ ~ ~ ~|~ ~ ~ ~|
 [A,,C]2 [A,,C] [B,,B,]2 [B,,A,] | [B,,A,]3 [E,G,]2 z || [B,,B,]3 [E,B,]3 | %18
w: ~ ~ ~ ~|~ ~|No- el!|
 ([A,,C]2 [B,,D]) [E,B,]2 [D,F,] | [C,G,]2 [C,C] [F,C]2 [=A,C] | B,3 [B,D]3 | %21
w: No- * el! Pro-|claim the Sav- ior’s|birth; He|
 [A,E]2 [A,C] (DC)[G,B,] | [F,C]2 [B,,D] [E,B,]2 [G,E] | [A,C]2 [E,B,] [B,,B,]2 [B,,B,] | %24
w: rais- es us * to|Heaven, O hail His|com- ing down to|
 [E,B,]3- [E,B,]2 |] %25
w: earth. *|
V:4
 x | x6 | x6 | x6 | x6 | x3 (CB,) x | x3 C2 x | x3 B,2 x | x6 | x6 | x3 G,2 x | x6 | x3 G,2 x | %13
 x6 | x6 | x6 | x6 || x6 | x6 | x6 | B,3 x3 | x3 A,2 x | x6 | x6 | x5 |] %25

